X:1
T:Title
%%score { ( 1 3 ) | ( 2 4 ) }
L:1/8
M:6/8
K:D
V:1 treble nm="Grand Piano"
V:3 treble 
V:2 treble 
V:4 treble 
V:1
 z3 z2[Q:1/4=100] [FA] | c2 c B2 A | [Fd]2 [DF] [FA]2 [FA] | c2 c B2 A |[M:5/8] [Fd]-[Fd]- [Fd]3 | %5
[M:1/8] [FA] |[M:3/4] [Fd]2 [Fd] [FA]2 F |[M:7/8] G2 A B3 G |[M:3/4] F2 [A,DF]C- [CD][G,CE] | %9
[M:5/8] D-D- D3 |[M:1/8] A |[M:3/4] F2 F [CE]2 [CE] | D2 D D2 F | [FA]2 [FA] [DGB]2 [DGB] | %14
 A2- [CGA] [DA]2 [DFA] | [DGB]2 [DGB] [FA]2 [FA] | GG G F2 F | E2 E ^G2 G | %18
[M:5/8] A2- [DA-] [EA]2 |[M:1/8] A |[M:3/4] F2 F [CE]2 [CE] | D2 D D2 F | [FA]2 [FA] [DGB]2 [DGB] | %23
 A2- [CGA] [DA]2 [DFA] | [DGB]2 [DGB] [DFA]2 [DFA] | [CEG][CEG] [CEG] [DF]2 [A,DF] | %26
 [A,CA]2 [B,CG] [A,CF]2[K:bass] [G,CE] |[M:5/8] [F,D]-[F,D]- [F,D]3 |] %28
V:2
 z3 z2 [D,D] | [A,EG]2 [A,EG] [A,DG]2 [A,CG] | [D,D]2 [D,A,] [D,D]2 [D,D] | %3
 [A,EG]2 [A,EG] [A,DG]2 [A,G] |[M:5/8][K:bass] [D,A,]-[D,A,]- [D,A,]3 |[M:1/8] [D,D] | %6
[M:3/4] [D,A,]2 [D,A,] [D,D]2 [D,=CD] |[M:7/8] [G,B,D]2 [F,A,D] [G,D]3 [G,B,D] | %8
[M:3/4] [A,D]2 .A,,2 F,A,, |[M:5/8] [D,F,]-[D,F,]- [D,F,]3 |[M:1/8] [D,F,D] | %11
[M:3/4] [D,A,D]2 [D,A,D] [A,,G,]2 [A,,G,] | [D,F,]2 [D,G,B,] [D,F,A,]2 [D,A,D] | %13
 [D,D]2 [D,D] G,,2 G,, | D,2 E, F,2 D, | G,2 G, [D,D]2 [D,D] | [A,CE][A,CE] [A,CE] [A,D]2 [D,A,D] | %17
 [E,A,C]2 [E,A,C] [E,B,D]2 [E,D] |[M:5/8] E,2 F, G,2 |[M:1/8] [D,F,D] | %20
[M:3/4] [D,A,D]2 [D,A,D] [A,,G,]2 [A,,G,] | [D,F,]2 [D,G,B,] [D,F,A,]2 [D,A,D] | %22
 [D,D]2 [D,D] G,,2 G,, | D,2 E, F,2 D, | G,2 G, D,2 D, | A,A, A, A,2 D, | A,,2 A,, A,,2 A,, | %27
[M:5/8] D,-D,- D,3 |] %28
V:3
 x6 | x6 | x6 | x6 |[M:5/8] x5 |[M:1/8] x |[M:3/4] x6 |[M:7/8] x7 |[M:3/4] z2 z [G,E] z2 | %9
[M:5/8] x5 |[M:1/8] x |[M:3/4] x6 | x6 | x6 | [DF]2 z2 z2 | x6 | x6 | x6 |[M:5/8] C2 z z2 | %19
[M:1/8] x |[M:3/4] x6 | x6 | x6 | [DF]2 z2 z2 | x6 | x6 | x5[K:bass] x |[M:5/8] x5 |] %28
V:4
 x6 | x6 | x6 | x6 |[M:5/8][K:bass] x5 |[M:1/8] x |[M:3/4] x6 |[M:7/8] x7 |[M:3/4] z2 z .A,,3 | %9
[M:5/8] x5 |[M:1/8] x |[M:3/4] x6 | x6 | x6 | x6 | x6 | x6 | x6 |[M:5/8] A,,-A,,- A,,3 |[M:1/8] x | %20
[M:3/4] x6 | x6 | x6 | x6 | x6 | x6 | x6 |[M:5/8] x5 |] %28

